src/assets/icons/svg/birthdayCake.svg

<?xml version="1.0" encoding="UTF-8"?>
<svg width="32px" height="28px" viewBox="0 0 32 28" version="1.1" xmlns="http://www.w3.org/2000/svg" xmlns:xlink="http://www.w3.org/1999/xlink">
    <!-- Generator: Sketch 60.1 (88133) - https://sketch.com -->
    <title>Group 3</title>
    <desc>Created with Sketch.</desc>
    <defs>
        <polygon id="path-1" points="0 0 32 0 32 28 0 28"></polygon>
    </defs>
    <g id="MVP" stroke="none" stroke-width="1" fill="none" fill-rule="evenodd">
        <g id="Kirjautuneen-käyttäjän-näkymä-Auki-(1)" transform="translate(-260.000000, -305.000000)">
            <g id="Group-3" transform="translate(260.000000, 305.000000)">
                <mask id="mask-2" fill="white">
                    <use xlink:href="#path-1"></use>
                </mask>
                <g id="Clip-2"></g>
                <path d="M2.26872499,25.6865864 L2.26872499,21.9296215 C3.36306461,22.8064798 4.77072613,23.3358597 6.30531732,23.3358597 C8.20697541,23.3358597 9.97712979,22.4974805 11.1526587,21.1297214 C12.327044,22.4974805 14.0971984,23.3358597 16,23.3358597 C17.9016581,23.3358597 19.6718125,22.4974805 20.8473413,21.1297214 C22.0228702,22.4974805 23.7930246,23.3358597 25.6946827,23.3358597 C27.2292739,23.3358597 28.6369354,22.8064798 29.731275,21.9296215 L29.731275,25.6865864 L2.26872499,25.6865864 Z M2.26872499,15.8021072 C2.26872499,14.7270229 3.12635792,13.8524966 4.18067467,13.8524966 L27.8193253,13.8524966 C28.8736421,13.8524966 29.731275,14.7270229 29.731275,15.8021072 L29.731275,17.2888019 C29.731275,19.3468538 27.9199543,21.0224462 25.6946827,21.0224462 C23.997713,21.0224462 22.4745569,20.0173239 21.9050886,18.5201349 L20.8473413,15.7449715 L19.7895941,18.5201349 C19.2201258,20.0173239 17.6969697,21.0224462 16,21.0224462 C14.3030303,21.0224462 12.7798742,20.0173239 12.2092624,18.5201349 L11.1526587,15.7449715 L10.0949114,18.5201349 C9.5242996,20.0173239 8.00114351,21.0224462 6.30531732,21.0224462 C4.07890223,21.0224462 2.26872499,19.3468538 2.26872499,17.2888019 L2.26872499,15.8021072 Z M7.8913665,4.54753675 C8.39108062,5.52117603 8.74328188,6.3548911 8.76043453,6.65572815 C8.75814751,7.1431308 8.36935392,7.53841669 7.8913665,7.53841669 C7.41223556,7.53841669 7.02229846,7.14079873 7.02229846,6.65806022 C7.0383076,6.35955524 7.39050886,5.5235081 7.8913665,4.54753675 L7.8913665,4.54753675 Z M15.8959405,4.54753675 C16.3956547,5.52117603 16.7478559,6.3548911 16.7650086,6.65572815 C16.7627216,7.1431308 16.373928,7.53841669 15.8959405,7.53841669 C15.4168096,7.53841669 15.0268725,7.14079873 15.0268725,6.65806022 C15.0428816,6.35955524 15.3950829,5.5235081 15.8959405,4.54753675 L15.8959405,4.54753675 Z M23.9005146,4.54753675 C24.4002287,5.52117603 24.75243,6.3548911 24.7695826,6.65572815 C24.7672956,7.1431308 24.378502,7.53841669 23.9005146,7.53841669 C23.4213836,7.53841669 23.0314465,7.14079873 23.0314465,6.65806022 C23.0474557,6.35955524 23.3996569,5.5235081 23.9005146,4.54753675 L23.9005146,4.54753675 Z M27.8193253,11.539083 L25.0348771,11.539083 L25.0348771,9.62678549 C26.2046884,9.1615375 27.0383076,8.00716279 27.0383076,6.65223004 C27.0383076,5.33810852 25.5197256,2.68188065 24.866781,1.59980011 L23.9005146,0 L22.9342481,1.59980011 C22.2813036,2.68188065 20.7627216,5.33810852 20.7627216,6.65223004 C20.7627216,8.00716279 21.5963408,9.1615375 22.7661521,9.62678549 L22.7661521,11.539083 L17.030303,11.539083 L17.030303,9.62678549 C18.2001144,9.1615375 19.0337336,8.00716279 19.0337336,6.65223004 C19.0337336,5.33810852 17.5151515,2.68188065 16.862207,1.59980011 L15.8959405,0 L14.9296741,1.59980011 C14.2767296,2.68188065 12.7581475,5.33810852 12.7581475,6.65223004 C12.7581475,8.00716279 13.5917667,9.1615375 14.761578,9.62678549 L14.761578,11.539083 L9.02572899,11.539083 L9.02572899,9.62678549 C10.1955403,9.1615375 11.0291595,8.00716279 11.0291595,6.65223004 C11.0291595,5.33810852 9.51057747,2.68188065 8.85763293,1.59980011 L7.8913665,0 L6.92510006,1.59980011 C6.27215552,2.68188065 4.75357347,5.33810852 4.75357347,6.65223004 C4.75357347,8.00716279 5.58719268,9.1615375 6.757004,9.62678549 L6.757004,11.539083 L4.18067467,11.539083 C1.87535735,11.539083 0,13.4513805 0,15.8021072 L0,28 L32,28 L32,15.8021072 C32,13.4513805 30.1246427,11.539083 27.8193253,11.539083 L27.8193253,11.539083 Z" id="Fill-1" fill="#000000" mask="url(#mask-2)"></path>
            </g>
        </g>
    </g>
</svg>

<?xml version="1.0" encoding="UTF-8"?>
<svg version="1.1" viewBox="0 0 32 28" xmlns="http://www.w3.org/2000/svg" xmlns:xlink="http://www.w3.org/1999/xlink"><defs><polygon id="a" points="0 0 32 0 32 28 0 28"/></defs><g fill="none" fill-rule="evenodd"><g transform="translate(-260 -305)"><g transform="translate(260 305)"><mask id="b" fill="white"><use xlink:href="#a"/></mask><path d="m2.2687 25.687v-3.757c1.0943 0.87686 2.502 1.4062 4.0366 1.4062 1.9017 0 3.6718-0.83838 4.8473-2.2061 1.1744 1.3678 2.9445 2.2061 4.8473 2.2061 1.9017 0 3.6718-0.83838 4.8473-2.2061 1.1755 1.3678 2.9457 2.2061 4.8473 2.2061 1.5346 0 2.9423-0.52938 4.0366-1.4062v3.757h-27.463zm0-9.8845c0-1.0751 0.85763-1.9496 1.9119-1.9496h23.639c1.0543 0 1.9119 0.87453 1.9119 1.9496v1.4867c0 2.0581-1.8113 3.7336-4.0366 3.7336-1.697 0-3.2201-1.0051-3.7896-2.5023l-1.0577-2.7752-1.0577 2.7752c-0.56947 1.4972-2.0926 2.5023-3.7896 2.5023s-3.2201-1.0051-3.7907-2.5023l-1.0566-2.7752-1.0577 2.7752c-0.57061 1.4972-2.0938 2.5023-3.7896 2.5023-2.2264 0-4.0366-1.6756-4.0366-3.7336v-1.4867zm5.6226-11.255c0.49971 0.97364 0.85192 1.8074 0.86907 2.1082-0.002287 0.4874-0.39108 0.88269-0.86907 0.88269-0.47913 0-0.86907-0.39762-0.86907-0.88036 0.016009-0.2985 0.36821-1.1346 0.86907-2.1105zm8.0046 0c0.49971 0.97364 0.85192 1.8074 0.86907 2.1082-0.002287 0.4874-0.39108 0.88269-0.86907 0.88269-0.47913 0-0.86907-0.39762-0.86907-0.88036 0.016009-0.2985 0.36821-1.1346 0.86907-2.1105zm8.0046 0c0.49971 0.97364 0.85192 1.8074 0.86907 2.1082-0.002287 0.4874-0.39108 0.88269-0.86907 0.88269-0.47913 0-0.86907-0.39762-0.86907-0.88036 0.016009-0.2985 0.36821-1.1346 0.86907-2.1105zm3.9188 6.9915h-2.7844v-1.9123c1.1698-0.46525 2.0034-1.6196 2.0034-2.9746 0-1.3141-1.5186-3.9703-2.1715-5.0524l-0.96627-1.5998-0.96627 1.5998c-0.65294 1.0821-2.1715 3.7383-2.1715 5.0524 0 1.3549 0.83362 2.5093 2.0034 2.9746v1.9123h-5.7358v-1.9123c1.1698-0.46525 2.0034-1.6196 2.0034-2.9746 0-1.3141-1.5186-3.9703-2.1715-5.0524l-0.96627-1.5998-0.96627 1.5998c-0.65294 1.0821-2.1715 3.7383-2.1715 5.0524 0 1.3549 0.83362 2.5093 2.0034 2.9746v1.9123h-5.7358v-1.9123c1.1698-0.46525 2.0034-1.6196 2.0034-2.9746 0-1.3141-1.5186-3.9703-2.1715-5.0524l-0.96627-1.5998-0.96627 1.5998c-0.65294 1.0821-2.1715 3.7383-2.1715 5.0524 0 1.3549 0.83362 2.5093 2.0034 2.9746v1.9123h-2.5763c-2.3053 0-4.1807 1.9123-4.1807 4.263v12.198h32v-12.198c0-2.3507-1.8754-4.263-4.1807-4.263z" fill="#000" mask="url(#b)"/></g></g></g></svg>
